tools/download-figma-icons/icons/outlined-large/new-customer.svg

<svg width="64" height="64" viewBox="0 0 64 64" fill="none" xmlns="http://www.w3.org/2000/svg">
<path fill-rule="evenodd" clip-rule="evenodd" d="M35.5555 53.4C37.3385 56.16 40.4535 58 43.9795 58C49.4985 58 53.9955 53.51 53.9955 48C53.9955 42.49 49.4985 38 43.9795 38H43.7795C42.7375 38.02 41.7355 38.2 40.8035 38.52C36.8375 39.84 33.9625 43.6 33.9625 48C33.9625 48.88 34.0735 49.73 34.2935 50.54C34.5645 51.57 34.9845 52.53 35.5555 53.4ZM10.0445 48.81C10.0845 48.83 14.5915 51 25.9505 51C27.9235 51 29.6965 50.93 31.2685 50.83C31.0685 49.92 30.9585 48.97 30.9585 48C30.9585 42.31 34.6445 37.46 39.7515 35.71C37.6685 31.68 33.4825 29 28.6445 29H23.2555C16.7255 29 11.3675 33.9 10.7865 40.39L10.0355 48.81H10.0445ZM25.9505 6C20.4315 6 15.9345 10.49 15.9345 16C15.9345 21.51 20.4315 26 25.9505 26C31.4685 26 35.9665 21.51 35.9665 16C35.9665 10.49 31.4685 6 25.9505 6ZM42.7775 35.06C43.1775 35.02 43.5785 35 43.9795 35C51.1605 35 57.0005 40.83 57.0005 48C57.0005 55.17 51.1605 61 43.9795 61C38.8615 61 34.4335 58.04 32.3005 53.75C30.4575 53.91 28.3435 54 25.9505 54C14.9725 54 9.94449 52.05 8.88249 51.58C7.71049 51.28 6.89949 50.17 7.00949 48.94L7.79149 40.13C8.36249 33.69 12.7185 28.53 18.5685 26.71C15.1635 24.36 12.9295 20.44 12.9295 16C12.9295 8.83 18.7685 3 25.9505 3C33.1315 3 38.9705 8.83 38.9705 16C38.9705 20.44 36.7375 24.36 33.3325 26.71C37.5395 28.02 40.9745 31.06 42.7775 35.06ZM45.4813 46.5H49.4883C50.3193 46.5 50.9903 47.17 50.9903 48C50.9903 48.83 50.3193 49.5 49.4883 49.5H45.4813V53.83C45.4813 54.66 44.8103 55.33 43.9793 55.33C43.1473 55.33 42.4763 54.66 42.4763 53.83V51.79V49.5H39.8323H38.4703C37.6383 49.5 36.9673 48.83 36.9673 48C36.9673 47.17 37.6383 46.5 38.4703 46.5H41.6653H42.4763V42.17C42.4763 41.34 43.1473 40.67 43.9793 40.67C44.0393 40.67 44.0993 40.67 44.1593 40.69C44.9103 40.77 45.4813 41.4 45.4813 42.17V46.5Z" fill="black"/>
</svg>

<svg xmlns="http://www.w3.org/2000/svg" width="64" height="64" fill="none" viewBox="0 0 64 64"><path fill="currentColor" fill-rule="evenodd" d="M35.556 53.4c1.783 2.76 4.898 4.6 8.424 4.6 5.519 0 10.016-4.49 10.016-10S49.498 38 43.98 38h-.2c-1.043.02-2.044.2-2.977.52-3.965 1.32-6.84 5.08-6.84 9.48 0 .88.11 1.73.33 2.54a9.7 9.7 0 0 0 1.263 2.86m-25.511-4.59c.04.02 4.547 2.19 15.906 2.19 1.973 0 3.746-.07 5.317-.17-.2-.91-.31-1.86-.31-2.83 0-5.69 3.687-10.54 8.794-12.29-2.084-4.03-6.27-6.71-11.108-6.71h-5.388c-6.53 0-11.888 4.9-12.47 11.39l-.75 8.42zM25.95 6c-5.52 0-10.016 4.49-10.016 10S20.43 26 25.95 26c5.517 0 10.016-4.49 10.016-10S31.469 6 25.95 6m16.827 29.06q.6-.06 1.202-.06C51.16 35 57 40.83 57 48s-5.84 13-13.02 13c-5.118 0-9.546-2.96-11.68-7.25-1.842.16-3.956.25-6.35.25-10.977 0-16.006-1.95-17.068-2.42a2.5 2.5 0 0 1-1.873-2.64l.782-8.81c.571-6.44 4.928-11.6 10.778-13.42-3.405-2.35-5.64-6.27-5.64-10.71 0-7.17 5.84-13 13.022-13 7.18 0 13.02 5.83 13.02 13 0 4.44-2.233 8.36-5.638 10.71a15.36 15.36 0 0 1 9.445 8.35M45.48 46.5h4.007a1.5 1.5 0 1 1 0 3H45.48v4.33a1.5 1.5 0 0 1-1.502 1.5 1.5 1.5 0 0 1-1.503-1.5V49.5H38.47a1.5 1.5 0 1 1 0-3h4.006v-4.33c0-.83.671-1.5 1.503-1.5.06 0 .12 0 .18.02.751.08 1.322.71 1.322 1.48z" clip-rule="evenodd"/></svg>
